X:1
T:Title
%%score 1 { 2 | 3 }
L:1/8
Q:1/4=115
M:4/4
K:G
V:1 treble nm="Grand Piano, Soprano"
V:2 bass nm="Choir Pad, Be Not Afraid (Metzler)"
V:3 bass 
V:1
 D2 [DB]2 [DB]2 [DA]2 | [DB]2 [Ec]4 [DB]2 | [CA]2 [B,G]2 [DG]2 [DA]2 | [DA]2 [DB]6 | %4
w: By~Anonymous * * *||||
 D2 [GB]2 [GB]2 [FA]2 | [GB]2 [Gc]4 [GB]2 | [EA]2 [DG]2 [DB]2 [DA]2 | [DF]2 [DG]6 | %8
w: ||||
 D2 [DB]2 [DB]2 [DA]2 | [DB]2 [Ec]4 [DB]2 | [CA]2 [B,G]2 [DG]2 [DA]2 | [DA]2 [DB]6 | %12
w: ||||
 D2 [GB]2 [GB]2 [FA]2 | [GB]2 [Gc]4 [GB]2 | [EA]2 [DG]2 [DB]2 [DA]2 | [DF]2 [DG]6 | %16
w: ||||
 G[GA] [GB]4 [GB]2 | [GB]2 [Bd]6 | [Ac][GB] [FA]4 [FA]2 | [GB]2 [Fc]6 | [GB][FA] G4 [GB]2 | %21
w: |||||
 [DG][DG] [EA]4 [Ac]2 | [GB][EA] [DG]2 [GB]2 [FA]2 | [DF]2 [DG]6- | [DG]4 z4 |] %25
w: ||||
V:2
 D,2 G,2 G,2 D2 | D2 C4 G,2 | G,2 G,2 G,2 F,2 | F,2 G,6 | B,2[K:treble] D2 D2 D2 | D2 E4 D2 | %6
 C2 B,2 D2 C2 | A,2 B,6 | D,2 G,2 G,2[K:treble] D2 | D2 C4 G,2 | G,2[K:bass] G,2 G,2 F,2 | %11
 F,2 G,6 | B,2[K:treble] D2 D2 D2 | D2 E4 D2 | C2 B,2 D2 C2 | A,2 B,6 | B,C D4[K:treble] D2 | %17
 D2 D6 | DD D4 C2 | B,2 A,6 | DC B,4 D2 | B,B,[K:treble] C4 E2 | DC B,2[K:bass] D2 C2 | A,2 B,6- | %24
 B,4 z4 |] %25
V:3
 z4 z2 F,2 | G,2 C,4 C,2 | C,2 G,,2 B,,2 D,2 | D,2 z2 z4 | D,2 G,2 G,2 D,2 | G,2 C,4 C,2 | %6
 C,2 D,2 D,2 D,2 | D,2 G,6 | z4 z2 F,2 | G,2 C,4 C,2 | C,2 G,,2 B,,2 D,2 | D,2 z2 z4 | %12
 D,2 G,2 G,2 D,2 | G,2 C,4 C,2 | C,2 D,2 D,2 D,2 | D,2 G,6 | G,G, G,4 G,2 | G,2 G,6 | %18
 G,G, D,4 D,2 | D,2 D,6 | D,D, G,4 G,2 | G,G, C,4 C,2 | C,C, D,4 D,2 | D,2 G,,6- | G,,4 z4 |] %25

